X:1
T:Title
%%score { ( 1 2 ) | ( 3 4 ) }
L:1/8
Q:1/4=100
M:4/4
K:F
V:1 treble nm="Grand Piano"
V:2 treble 
V:3 bass 
V:4 bass 
V:1
 z2 G2 z4 | d2 d2 d>c B2 | [Ac]2 [Af][Bd] [FAc]2 [DGB]2 | [CFA]2 (3cBG F4 | z2 G2 z4 | %5
 d2 d2 d>c [DGB]2 | [FAc]2 [Af]>[c_e] [Bd]2 [Gc]2 | [FB]2 [_EA]2 [DB]4 | %8
 [Ed]2 [EG]2 [FA]>B [CAc]2 | .[CAc]2 df [=Ac]>[GB] [FA]2 | [Ed]2 [EG]2 [FA]>B [CAc]2 | %11
 .[CBc]2 d>e f4 | z2 G2 z4 | d2 d2 d>c B2 | [Ac]2 [Af]>[Fc_e] [FBd]2 [_EGc]2 | %15
 [DFB]2 [C_EA]2 [B,DB]4 |] %16
V:2
 [DF]2 ^C->[G,CE] [DF]2 [DB]>c | x8 | x8 | z2 E2 z4 | [DF]2 ^C->[G,CE] [DF]2 [DB]>c | x8 | x8 | %7
 x8 | x8 | z2 _A2 z4 | x8 | z2 BG z4 | [DF]2 ^C->[G,CE] [DF]2 [DB]>c | x8 | x8 | x8 |] %16
V:3
 [B,,F,]2 [B,,E,]2 [B,,F,]2 z z/ E/ | [B,F]2 [A,C^F]2 [G,G]->[G,CG] [G,DG]2 | [F,F]2 CF F,2 B,,2 | %3
 C,2 [C,B,]2 [F,A,]4 | [B,,F,]2 [B,,E,]2 [B,,F,]2 z z/[K:treble] E/ | %5
 [B,F]2 [A,C^F]2 [G,G]->[G,CG][K:bass] F,2 | F,2 [F,C]>[K:treble][A,F] [B,F]2[K:bass] [_E,_E]2 | %7
 [F,D]2 [F,C]2 [B,,B,]4 | z4 [F,C]2 z2 | z[K:treble] f[K:bass] [F,=B,]2 [F,C]2 [F,C]2 | %10
 z4 [F,C]2 z2 | z AG,B, [F,A,F]4 | [B,,F,]2 [B,,E,]2 [B,,F,]2 z z/[K:treble] E/ | %13
 [B,F]2 [A,C^F]2 [G,G]->[G,CG] [G,CG]2 | [F,F]2 [F,C]>A, B,2 _E,2 | F,2 F,2 B,,4 |] %16
V:4
 z4 z2 [B,,G,]2 | z4 B,2 z2 | z2 F,2 z4 | x8 | z4 z2 [B,,F,]2[K:treble] | z4 B,2[K:bass] z2 | %6
 x7/2[K:treble] x5/2[K:bass] x2 | x8 | [C,G,]2 [C,C]2 z z/ G/ F,2 | F,2[K:treble][K:bass] z2 z4 | %10
 [C,C]2 [C,C]2 z z/ G/ F,2 | C,2 C,2 z4 | z4 z2 [B,,F,]2[K:treble] | z4 B,2 z2 | x8 | x8 |] %16

